X:233
T:Haste to the wedding
R:Jig
O:England
M:6/8
K:D
P:A
B|\
AFA Aaf|ede fdB|AFA AdF|EFE E2A|\
AFA Aaf|ede fdB|AFA faf|ded d2::
P:B
a|\
afa afa|bgb bgb|afa agf|gfg efg|\
[a3A3] [f3A3]  |ede fdB|AFA faf|ded d2:|
